svgs/light/user-tie-hair-long.svg

<svg xmlns="http://www.w3.org/2000/svg" viewBox="0 0 448 512"><!--! Font Awesome Pro 6.1.1 by @fontawesome - https://fontawesome.com License - https://fontawesome.com/license (Commercial License) Copyright 2022 Fonticons, Inc. --><path d="M224 0C294.7 0 352 57.31 352 128C352 163.3 368.6 196.4 396.8 217.6L401.1 220.8C410.5 227.9 416 238.9 416 250.7C416 271.3 399.3 288 378.7 288H320C311.2 288 304 280.8 304 272C304 263.2 311.2 256 320 256H378.7C381.6 256 384 253.6 384 250.7C384 248.1 383.2 247.4 381.9 246.4L377.6 243.2C361.8 231.3 348.8 216.5 339.2 199.8C318.5 242.6 274.7 272 224 272C173.3 272 129.5 242.6 108.8 199.8C99.19 216.5 86.21 231.3 70.4 243.2L66.13 246.4C64.79 247.4 64 248.1 64 250.7C64 253.6 66.39 256 69.33 256H128C136.8 256 144 263.2 144 272C144 280.8 136.8 288 128 288H69.33C48.72 288 32 271.3 32 250.7C32 238.9 37.53 227.9 46.93 220.8L51.2 217.6C79.4 196.4 96 163.3 96 128C96 57.31 153.3 0 224 0V0zM318.7 112H288.6C273.7 112 259.5 106.1 248.1 95.6L242.7 89.33C223.4 113.5 193.1 128 162.3 128H128V144C128 197 170.1 240 224 240C277 240 320 197 320 144V128C320 122.5 319.5 117.2 318.7 112V112zM251.3 52.69L271.6 72.97C276.1 77.47 282.2 80 288.6 80H307.2C290.6 51.31 259.5 32 224 32C182.2 32 146.6 58.71 133.5 96H162.3C189.1 96 213.5 80.97 225.5 57.15C226.3 55.53 227.4 54.02 228.7 52.69C234.9 46.44 245.1 46.44 251.3 52.69H251.3zM.0006 481.3C.0006 397.9 63.28 329.3 144.4 320.9L181.9 395.8L201.8 336H192C183.2 336 176 328.8 176 320C176 311.2 183.2 304 192 304H256C264.8 304 272 311.2 272 320C272 328.8 264.8 336 256 336H246.2L266.1 395.8L303.6 320.9C384.7 329.3 448 397.9 448 481.3C448 498.2 434.2 511.1 417.3 511.1H30.72C13.75 511.1 0 498.2 0 481.3H.0006zM202.1 436.2L223.1 479.1L245.9 436.2L224 370.6L202.1 436.2zM415.1 479.1C415.4 421.2 375.6 371.8 321.4 356.7L259.8 479.1H415.1zM188.2 479.1L126.6 356.7C72.43 371.8 32.58 421.2 32.01 479.1H188.2z"/></svg>

<svg xmlns="http://www.w3.org/2000/svg" viewBox="0 0 448 512"><!--! Font Awesome Pro 6.4.2 by @fontawesome - https://fontawesome.com License - https://fontawesome.com/license (Commercial License) Copyright 2023 Fonticons, Inc. --><path d="M320 128c0-5.5-.5-10.8-1.3-16H288.6c-14.9 0-29.1-5.9-39.6-16.4l-6.3-6.3C223.4 113.5 194 128 162.3 128L128 128v16c0 53 43 96 96 96s96-43 96-96V128zM224 0c70.7 0 128 57.3 128 128c0 35.3 16.6 68.4 44.8 89.6l4.3 3.2c9.4 7.1 14.9 18.1 14.9 29.9c0 20.6-16.7 37.3-37.3 37.3H320c-8.8 0-16-7.2-16-16s7.2-16 16-16h58.7c2.9 0 5.3-2.4 5.3-5.3c0-1.7-.8-3.3-2.1-4.3l-4.3-3.2c-15.8-11.9-28.8-26.7-38.4-43.4C318.5 242.6 274.7 272 224 272s-94.5-29.4-115.2-72.2c-9.6 16.7-22.6 31.5-38.4 43.4l-4.3 3.2c-1.3 1-2.1 2.6-2.1 4.3c0 2.9 2.4 5.3 5.3 5.3H128c8.8 0 16 7.2 16 16s-7.2 16-16 16H69.3C48.7 288 32 271.3 32 250.7c0-11.8 5.5-22.8 14.9-29.9l4.3-3.2C79.4 196.4 96 163.3 96 128C96 57.3 153.3 0 224 0zm4.7 52.7c6.2-6.2 16.4-6.2 22.6 0L271.6 73c4.5 4.5 10.6 7 17 7h18.6C290.6 51.3 259.5 32 224 32c-41.8 0-77.4 26.7-90.5 64h28.9c26.7 0 51.2-15 63.2-38.9c.8-1.6 1.8-3.1 3.1-4.5zM180.4 477.9L124.7 357.2C71.5 372.9 32.6 421.9 32 480H181.4c-.3-.7-.7-1.4-1-2.1zM416 480c-.6-58.1-39.5-107.1-92.7-122.8L267.6 477.9c-.3 .7-.7 1.4-1 2.1H416zM131.8 322.7c6.8-1.3 13.4 2.5 16.3 8.8L180.1 401l21.7-65H192c-8.8 0-16-7.2-16-16s7.2-16 16-16h32 32c8.8 0 16 7.2 16 16s-7.2 16-16 16h-9.8l21.7 65 32.1-69.5c2.9-6.3 9.5-10 16.3-8.8c75 13.8 131.8 79.6 131.8 158.6c0 17-13.8 30.7-30.7 30.7H30.7C13.8 512 0 498.2 0 481.3c0-79 56.8-144.7 131.8-158.6zM248.3 443.4L224 370.6l-24.3 72.8 9.7 21.1c5.7 12.4 23.3 12.4 29.1 0l9.7-21.1z"/></svg>
